svgs/thin/signal.svg

<svg xmlns="http://www.w3.org/2000/svg" viewBox="0 0 640 512"><!--! Font Awesome Pro 6.6.0 by @fontawesome - https://fontawesome.com License - https://fontawesome.com/license (Commercial License) Copyright 2024 Fonticons, Inc. --><path d="M584 8c0-4.4-3.6-8-8-8s-8 3.6-8 8l0 496c0 4.4 3.6 8 8 8s8-3.6 8-8L584 8zM448 96c-4.4 0-8 3.6-8 8l0 400c0 4.4 3.6 8 8 8s8-3.6 8-8l0-400c0-4.4-3.6-8-8-8zM328 200c0-4.4-3.6-8-8-8s-8 3.6-8 8l0 304c0 4.4 3.6 8 8 8s8-3.6 8-8l0-304zM192 288c-4.4 0-8 3.6-8 8l0 208c0 4.4 3.6 8 8 8s8-3.6 8-8l0-208c0-4.4-3.6-8-8-8zM64 384c-4.4 0-8 3.6-8 8l0 112c0 4.4 3.6 8 8 8s8-3.6 8-8l0-112c0-4.4-3.6-8-8-8z"/></svg>

<svg xmlns="http://www.w3.org/2000/svg" viewBox="0 0 640 512"><!--! Font Awesome Pro 6.5.2 by @fontawesome - https://fontawesome.com License - https://fontawesome.com/license (Commercial License) Copyright 2024 Fonticons, Inc. --><path d="M584 8c0-4.4-3.6-8-8-8s-8 3.6-8 8V504c0 4.4 3.6 8 8 8s8-3.6 8-8V8zM448 96c-4.4 0-8 3.6-8 8V504c0 4.4 3.6 8 8 8s8-3.6 8-8V104c0-4.4-3.6-8-8-8zM328 200c0-4.4-3.6-8-8-8s-8 3.6-8 8V504c0 4.4 3.6 8 8 8s8-3.6 8-8V200zM192 288c-4.4 0-8 3.6-8 8V504c0 4.4 3.6 8 8 8s8-3.6 8-8V296c0-4.4-3.6-8-8-8zM64 384c-4.4 0-8 3.6-8 8V504c0 4.4 3.6 8 8 8s8-3.6 8-8V392c0-4.4-3.6-8-8-8z"/></svg>
